src/svg/uf15c-file-text.svg

<!-- Generated by IcoMoon.io -->
<svg version="1.1" xmlns="http://www.w3.org/2000/svg" width="27" height="32" viewBox="0 0 27 32">
<path d="M26.214 8.5c0.179 0.179 0.339 0.393 0.5 0.643h-8.429v-8.429c0.25 0.161 0.464 0.321 0.643 0.5zM17.714 11.429h9.714v18.857c0 0.946-0.768 1.714-1.714 1.714h-24c-0.946 0-1.714-0.768-1.714-1.714v-28.571c0-0.946 0.768-1.714 1.714-1.714h14.286v9.714c0 0.946 0.768 1.714 1.714 1.714zM20.571 24.571v-1.143c0-0.321-0.25-0.571-0.571-0.571h-12.571c-0.321 0-0.571 0.25-0.571 0.571v1.143c0 0.321 0.25 0.571 0.571 0.571h12.571c0.321 0 0.571-0.25 0.571-0.571zM20.571 20v-1.143c0-0.321-0.25-0.571-0.571-0.571h-12.571c-0.321 0-0.571 0.25-0.571 0.571v1.143c0 0.321 0.25 0.571 0.571 0.571h12.571c0.321 0 0.571-0.25 0.571-0.571zM20.571 15.429v-1.143c0-0.321-0.25-0.571-0.571-0.571h-12.571c-0.321 0-0.571 0.25-0.571 0.571v1.143c0 0.321 0.25 0.571 0.571 0.571h12.571c0.321 0 0.571-0.25 0.571-0.571z"></path>
</svg>

<svg xmlns="http://www.w3.org/2000/svg" width="27" height="32"><path d="M26.214 8.5c.179.179.339.393.5.643h-8.429V.714c.25.161.464.321.643.5zm-8.5 2.929h9.714v18.857c0 .946-.768 1.714-1.714 1.714h-24A1.715 1.715 0 0 1 0 30.286V1.715C0 .769.768.001 1.714.001H16v9.714c0 .946.768 1.714 1.714 1.714zm2.857 13.142v-1.143a.564.564 0 0 0-.571-.571H7.429a.564.564 0 0 0-.571.571v1.143c0 .321.25.571.571.571H20c.321 0 .571-.25.571-.571zm0-4.571v-1.143a.564.564 0 0 0-.571-.571H7.429a.564.564 0 0 0-.571.571V20c0 .321.25.571.571.571H20c.321 0 .571-.25.571-.571zm0-4.571v-1.143a.564.564 0 0 0-.571-.571H7.429a.564.564 0 0 0-.571.571v1.143c0 .321.25.571.571.571H20c.321 0 .571-.25.571-.571z"/></svg>
